gtk/icons/scalable/actions/gesture-rotate-clockwise-symbolic.svg

<svg height="64" width="64" xmlns="http://www.w3.org/2000/svg">
  <path d="m24.498798 23.607523-2.839143 20.435409a2.6852014 2.6852014 138.95481 0 1 -2.659655 2.315689 2.2528671 2.2528671 51.11646 0 1 -2-2.480085v-8.031108a3.5862069 3.5862069 45 0 0 -3.586207-3.586207 3.5199753 3.5199753 133.91152 0 0 -3.4524733 3.586207v9.113892a16.03868 16.03868 45 0 0 16.0386803 16.03868h15.064768a12.51426 12.51426 150.6443 0 0 10.694212-6.01499l5.789196-9.525823a3.9578759 3.9578759 75.644301 0 0 -1.403313-5.48314 3.8604498 3.8604498 161.55408 0 0 -5.130446 1.711241l-.253482.420709a1.5729032 1.5729032 165.77288 0 1 -2.145007.54385 1.4392452 1.4392452 80.649742 0 1 -.329312-1.999992l1.659041-2.873543a3.2081187 3.2081187 75 0 0 -1.174253-4.382371 3.2041325 3.2041325 164.92867 0 0 -4.375463 1.178241l-1.243653 2.154071a1.4684876 1.4684876 165 0 1 -2.005992.537503 1.3979357 1.3979357 77.969911 0 1 -.412052-1.933561l9.611383-16.647405a3.6434853 3.6434853 74.999999 0 0 -1.333608-4.977094 3.5312813 3.5312813 163.14925 0 0 -4.77956 1.447655l-12.30338 21.31008a.9819488.9819488 172.5 0 1 -1.544735.203368 1.8866761 1.8866761 82.477632 0 1 -.218308-1.653228l1.361407-10.404184a3.6853489 3.6853489 52.792504 0 0 -3.133011-4.126468 3.5235685 3.5235685 141.28556 0 0 -3.895634 3.122604z"
        class="foreground-fill foreground-stroke"/>
  <path d="m22.585786 4 4 4-4 4"
        class="transparent-fill foreground-stroke"/>
  <path d="m24 8 h -5 a 8 8 45 0 0 -8 8 v1"
        class="transparent-fill foreground-stroke"/>
  <path d="m20.272593 26.070552a8 8 0 0 1 4.66594-9.461588 8 8 0 0 1 9.98967 3.391036" stroke-linejoin="round"
        class="transparent-fill foreground-stroke"/>
  <path d="m39 17a8 8 0 0 1 5.929448-7.7274067 8 8 0 0 1 8.998755 3.7274067 8 8 0 0 1 -1.271349 9.656854" stroke-linejoin="round"
        class="transparent-fill foreground-stroke"/>
</svg>

<svg width='64' height='64'
     xmlns:gpa='https://www.gtk.org/grappa'
     gpa:version='1'
     gpa:keywords='hand gesture touch rotate'
     gpa:state='0'>
  <path d='M 24.4990005 23.6079998 L 21.6590004 44.0429993 C 21.4748306 45.370388, 20.3401051 46.3587418, 19 46.3590012 C 17.7629337 46.2263603, 16.8675556 45.1160889, 17 43.8790016 L 17 35.8470001 C 17 33.8665085, 15.3944921 32.2610016, 13.4139996 32.2610016 C 11.4702034 32.297657, 9.92420292 33.9032059, 9.96100044 35.8470001 L 9.96100044 44.9609985 C 9.96155071 53.8188667, 17.1421318 60.9994469, 26 61 L 41.0649986 61 C 45.4356575 61.0007591, 49.4898186 58.7204361, 51.7589989 54.9850006 L 57.5489998 45.4589996 C 58.1014748 44.5485649, 58.2639656 43.4539795, 57.9997902 42.4223137 C 57.7356186 41.3906479, 57.0670509 40.5088654, 56.1450005 39.9760017 C 54.2544594 39.0530396, 51.9729996 39.8139687, 51.0149994 41.6870003 L 50.7610016 42.1080017 C 50.3159866 42.8466339, 49.3592415 43.0892754, 48.6160011 42.6520004 C 47.9759445 42.1887627, 47.8286896 41.2963066, 48.2859993 40.6520004 L 49.9459991 37.7779999 C 50.8304062 36.2433205, 50.3045769 34.2823143, 48.7709999 33.3959999 C 47.2375641 32.5133095, 45.2789116 33.0406914, 44.3959999 34.5740013 L 43.1520004 36.7280006 C 42.746109 37.4298363, 41.8486137 37.6705399, 41.1459999 37.2659988 C 40.4990425 36.8451118, 40.3147507 35.9800224, 40.7340012 35.3320007 L 50.3460007 18.6849995 C 51.3522797 16.9423046, 50.7549706 14.7138071, 49.012001 13.7080002 C 47.2925491 12.7867556, 45.1518326 13.4347916, 44.2319984 15.1549997 L 31.9300003 36.4650002 C 31.7774734 36.7295494, 31.5105572 36.9080849, 31.2078152 36.9480591 C 30.9050732 36.9880333, 30.6009636 36.8848953, 30.3850002 36.6689987 C 30.0600872 36.1815567, 29.9795666 35.5710068, 30.1669998 35.0159988 L 31.5279999 24.6110001 C 31.7898006 22.6097603, 30.3930283 20.7702827, 28.3950005 20.4850006 C 27.4640369 20.3809414, 26.5299511 20.6518288, 25.7991028 21.2378197 C 25.0682564 21.8238106, 24.6007977 22.6766758, 24.5 23.6079998'
        id='path0'
        stroke-width='2'
        stroke-linecap='round'
        stroke-linejoin='round'
        stroke='rgb(0,0,0)'
        fill='none'
        class='foreground-stroke transparent-fill'/>
  <path d='M 20.2730007 26.0699997 C 19.2342758 22.1923161, 21.2301998 18.1452866, 24.9389992 16.6089993 C 28.6481342 15.0724602, 32.9216385 16.5230598, 34.9290009 20 M 39 17 C 39.0002518 13.3791475, 41.4324608 10.2098951, 44.9300003 9.27299976 C 48.4268227 8.33666801, 52.1166496 9.86517525, 53.9269981 13 C 55.737587 16.1357021, 55.2162819 20.0965672, 52.6559982 22.6569996'
        id='path1'
        stroke-width='3'
        stroke-linecap='round'
        stroke-linejoin='round'
        stroke='rgb(0,0,0)'
        fill='none'
        class='foreground-stroke transparent-fill'/>
  <path d='M 26.5860004 8 L 19 8 C 14.5817223 8, 11 11.5817223, 11 16 L 11 17 M 22.5860004 4 L 26.5860004 8 L 22.5860004 12'
        id='path2'
        stroke-width='2'
        stroke-linecap='round'
        stroke-linejoin='round'
        stroke='rgb(0,0,0)'
        fill='none'
        class='foreground-stroke transparent-fill'/>
</svg>
